X: 10
T: the Derry Reel
R: reel
Z: 2015 John Chambers <jc:trillian.mit.edu>
S: Printed source of unknown origin from RJ practice
M: C|
L: 1/8
K: A
AB |\
"A"c3B ABcA | "E"B2cB AFEF | "A"ABce a2ge | "D"(3fga ec "E"B2AB | "A"c3B ABcA |
"E"B2cB AFEF |1 "A"ABce fecA | "E"BAGB "A"A2 :|2 "A"ABce fece | "E"fefg "A"a2 ||
|: ag |\
"F#m"f3e ceag | "E"geBe geag | "F#m"f3e ceag | "E"gfeg "F#m"f2fg | "A"aecB ABcA |
"E"B2cB AFEF |1 "A"ABce fece | "E"fefg "A"a2 :|2 "A"ABce fecA | "E"BAGB "A"A2 |]

%%sep 1 1 500

